assets/images/svg/coin.svg

<svg width="20" height="20" viewBox="0 0 20 20" fill="none" xmlns="http://www.w3.org/2000/svg">
<g clip-path="url(#clip0)">
<path d="M10.1694 0.894836C4.99254 0.894836 0.750244 5.13713 0.750244 10.314C0.750244 15.4908 4.99254 19.7331 10.1694 19.7331C15.3462 19.7331 19.5885 15.4908 19.5885 10.314C19.5885 5.13713 15.3462 0.894836 10.1694 0.894836Z" fill="#FEDB41"/>
<path d="M19.5886 10.314C19.5886 15.4908 15.3463 19.7331 10.1694 19.7331V0.894836C15.3463 0.894836 19.5886 5.13713 19.5886 10.314Z" fill="#FCBF29"/>
<path d="M10.1694 3.13922C6.21771 3.13922 2.99463 6.3623 2.99463 10.314C2.99463 14.2656 6.21771 17.4887 10.1694 17.4887C14.121 17.4887 17.3441 14.2656 17.3441 10.314C17.3441 6.3623 14.121 3.13922 10.1694 3.13922Z" fill="#FEA832"/>
<path d="M17.3442 10.314C17.3442 14.2656 14.1211 17.4887 10.1694 17.4887V3.13922C14.1211 3.13922 17.3442 6.3623 17.3442 10.314Z" fill="#FE9923"/>
<path d="M10.1696 4.24304C6.825 4.24304 4.09863 6.96941 4.09863 10.314C4.09863 13.6585 6.825 16.3849 10.1696 16.3849C13.5141 16.3849 16.2405 13.6585 16.2405 10.314C16.2405 6.96941 13.5141 4.24304 10.1696 4.24304Z" fill="#FEDB41"/>
<path d="M16.2404 10.314C16.2404 13.6585 13.514 16.3849 10.1694 16.3849V4.24304C13.514 4.24304 16.2404 6.96941 16.2404 10.314Z" fill="#FCBF29"/>
<path d="M12.3771 11.9697C12.3771 12.9962 11.6707 13.8572 10.7214 14.1V14.7292C10.7214 15.0382 10.4786 15.2811 10.1695 15.2811C9.86043 15.2811 9.61762 15.0382 9.61762 14.7292V14.1C8.66835 13.8572 7.96191 12.9962 7.96191 11.9697C7.96191 11.6606 8.20471 11.4178 8.51382 11.4178C8.82292 11.4178 9.06572 11.6606 9.06572 11.9697C9.06572 12.5768 9.56243 13.0735 10.1695 13.0735C10.7766 13.0735 11.2733 12.5768 11.2733 11.9697C11.2733 11.3626 10.7766 10.8659 10.1695 10.8659C8.95538 10.8659 7.96191 9.87243 7.96191 8.65828C7.96191 7.63174 8.66835 6.77074 9.61762 6.52794V5.89877C9.61762 5.58966 9.86043 5.34686 10.1695 5.34686C10.4786 5.34686 10.7214 5.58966 10.7214 5.89877V6.52794C11.6707 6.77074 12.3771 7.63174 12.3771 8.65828C12.3771 8.96731 12.1343 9.21019 11.8252 9.21019C11.5161 9.21019 11.2733 8.96731 11.2733 8.65828C11.2733 8.05119 10.7766 7.55448 10.1695 7.55448C9.56243 7.55448 9.06572 8.05119 9.06572 8.65828C9.06572 9.26538 9.56243 9.76209 10.1695 9.76209C11.3837 9.76209 12.3771 10.7555 12.3771 11.9697Z" fill="#FEA832"/>
<path d="M12.377 11.9697C12.377 12.9962 11.6706 13.8572 10.7213 14.1V14.7292C10.7213 15.0382 10.4785 15.2811 10.1694 15.2811V13.0735C10.7765 13.0735 11.2732 12.5768 11.2732 11.9697C11.2732 11.3626 10.7765 10.8659 10.1694 10.8659V9.76208C11.3836 9.76208 12.377 10.7555 12.377 11.9697Z" fill="#FE9923"/>
<path d="M10.1694 7.55448V5.34686C10.4785 5.34686 10.7213 5.58966 10.7213 5.89877V6.52794C11.6706 6.77074 12.377 7.63174 12.377 8.65828C12.377 8.96731 12.1342 9.21019 11.8251 9.21019C11.516 9.21019 11.2732 8.96731 11.2732 8.65828C11.2732 8.05119 10.7765 7.55448 10.1694 7.55448Z" fill="#FE9923"/>
</g>
<defs>
<clipPath id="clip0">
<rect width="18.8383" height="18.8383" fill="white" transform="translate(0.750244 0.894836)"/>
</clipPath>
</defs>
</svg>

<svg width="20" height="20" fill="none" xmlns="http://www.w3.org/2000/svg"><g clip-path="url(#clip0)"><path d="M10.17.895C4.992.895.75 5.137.75 10.314c0 5.177 4.243 9.42 9.42 9.42 5.176 0 9.418-4.243 9.418-9.42S15.346.894 10.17.894z" fill="#FEDB41"/><path d="M19.589 10.314c0 5.177-4.243 9.42-9.42 9.42V.893c5.177 0 9.42 4.243 9.42 9.42z" fill="#FCBF29"/><path d="M10.17 3.14c-3.952 0-7.175 3.222-7.175 7.174 0 3.952 3.223 7.175 7.174 7.175 3.952 0 7.175-3.223 7.175-7.175s-3.223-7.175-7.175-7.175z" fill="#FEA832"/><path d="M17.344 10.314c0 3.952-3.223 7.175-7.175 7.175V3.139c3.952 0 7.175 3.223 7.175 7.175z" fill="#FE9923"/><path d="M10.17 4.243a6.082 6.082 0 00-6.071 6.071 6.082 6.082 0 006.07 6.07 6.082 6.082 0 006.072-6.07 6.082 6.082 0 00-6.071-6.071z" fill="#FEDB41"/><path d="M16.24 10.314a6.082 6.082 0 01-6.07 6.07V4.244a6.082 6.082 0 016.07 6.071z" fill="#FCBF29"/><path d="M12.377 11.97a2.203 2.203 0 01-1.656 2.13v.63a.547.547 0 01-.552.551.547.547 0 01-.551-.552V14.1a2.203 2.203 0 01-1.656-2.13c0-.31.243-.552.552-.552.309 0 .552.243.552.552 0 .607.496 1.103 1.103 1.103.608 0 1.104-.496 1.104-1.103s-.496-1.104-1.104-1.104a2.214 2.214 0 01-2.207-2.208c0-1.026.706-1.887 1.656-2.13v-.63c0-.308.242-.551.551-.551.31 0 .552.243.552.552v.629a2.203 2.203 0 011.656 2.13.547.547 0 01-.552.552.547.547 0 01-.552-.552c0-.607-.496-1.104-1.104-1.104-.607 0-1.103.497-1.103 1.104 0 .607.496 1.104 1.103 1.104 1.215 0 2.208.993 2.208 2.208z" fill="#FEA832"/><path d="M12.377 11.97a2.203 2.203 0 01-1.656 2.13v.63a.547.547 0 01-.552.551v-2.208c.607 0 1.104-.496 1.104-1.103s-.496-1.104-1.104-1.104V9.762c1.215 0 2.208.993 2.208 2.208zM10.17 7.554V5.347c.309 0 .551.243.551.552v.629a2.203 2.203 0 011.656 2.13.547.547 0 01-.552.552.547.547 0 01-.552-.552c0-.607-.496-1.104-1.104-1.104z" fill="#FE9923"/></g><defs><clipPath id="clip0"><path fill="#fff" transform="translate(.75 .895)" d="M0 0h18.838v18.838H0z"/></clipPath></defs></svg>
